img/recomendation/12.svg

<svg width="44" height="44" viewBox="0 0 44 44" fill="none" xmlns="http://www.w3.org/2000/svg">
<g id="material-symbols:other-admission">
<path id="Vector" d="M27.9583 34.375C28.325 34.375 28.6458 34.2375 28.9208 33.9625C29.1958 33.6875 29.3333 33.3667 29.3333 33C29.3333 32.6333 29.1958 32.3125 28.9208 32.0375C28.6458 31.7625 28.325 31.625 27.9583 31.625C27.5917 31.625 27.2708 31.7625 26.9958 32.0375C26.7208 32.3125 26.5833 32.6333 26.5833 33C26.5833 33.3667 26.7208 33.6875 26.9958 33.9625C27.2708 34.2375 27.5917 34.375 27.9583 34.375ZM33 34.375C33.3667 34.375 33.6875 34.2375 33.9625 33.9625C34.2375 33.6875 34.375 33.3667 34.375 33C34.375 32.6333 34.2375 32.3125 33.9625 32.0375C33.6875 31.7625 33.3667 31.625 33 31.625C32.6333 31.625 32.3125 31.7625 32.0375 32.0375C31.7625 32.3125 31.625 32.6333 31.625 33C31.625 33.3667 31.7625 33.6875 32.0375 33.9625C32.3125 34.2375 32.6333 34.375 33 34.375ZM38.0417 34.375C38.4083 34.375 38.7292 34.2375 39.0042 33.9625C39.2792 33.6875 39.4167 33.3667 39.4167 33C39.4167 32.6333 39.2792 32.3125 39.0042 32.0375C38.7292 31.7625 38.4083 31.625 38.0417 31.625C37.675 31.625 37.3542 31.7625 37.0792 32.0375C36.8042 32.3125 36.6667 32.6333 36.6667 33C36.6667 33.3667 36.8042 33.6875 37.0792 33.9625C37.3542 34.2375 37.675 34.375 38.0417 34.375ZM33 42.1667C30.4639 42.1667 28.3018 41.2726 26.5137 39.4845C24.7256 37.6964 23.8321 35.5349 23.8333 33C23.8333 30.4639 24.7274 28.3018 26.5155 26.5137C28.3036 24.7256 30.4651 23.8321 33 23.8333C35.5361 23.8333 37.6982 24.7274 39.4863 26.5155C41.2744 28.3036 42.1679 30.4651 42.1667 33C42.1667 35.5361 41.2726 37.6982 39.4845 39.4863C37.6964 41.2744 35.5349 42.1679 33 42.1667ZM12.8333 16.5H31.1667V12.8333H12.8333V16.5ZM21.4042 38.5H9.16667C8.15833 38.5 7.29483 38.1407 6.57617 37.422C5.8575 36.7033 5.49878 35.8404 5.5 34.8333V9.16667C5.5 8.15834 5.85933 7.29484 6.578 6.57617C7.29667 5.8575 8.15955 5.49878 9.16667 5.5H34.8333C35.8417 5.5 36.7052 5.85934 37.4238 6.578C38.1425 7.29667 38.5012 8.15956 38.5 9.16667V21.45C37.6139 21.0222 36.7198 20.7014 35.8178 20.4875C34.9158 20.2736 33.9766 20.1667 33 20.1667C32.6639 20.1667 32.3504 20.174 32.0595 20.1887C31.7686 20.2033 31.471 20.2418 31.1667 20.3042V20.1667H12.8333V23.8333H24.0625C23.5125 24.3528 23.0157 24.9181 22.572 25.5292C22.1283 26.1403 21.7391 26.7972 21.4042 27.5H12.8333V31.1667H20.3042C20.2431 31.4722 20.2046 31.7705 20.1887 32.0613C20.1728 32.3522 20.1654 32.6651 20.1667 33C20.1667 34.0083 20.2583 34.9482 20.4417 35.8197C20.625 36.6911 20.9458 37.5846 21.4042 38.5Z" fill="#13023E"/>
</g>
</svg>

<svg width="44" height="44" viewBox="0 0 44 44" fill="none" xmlns="http://www.w3.org/2000/svg"><g id="material-symbols:other-admission"><path id="Vector" d="M27.958 34.375c.367 0 .688-.138.963-.413a1.32 1.32 0 00.412-.962 1.32 1.32 0 00-.412-.962 1.32 1.32 0 00-.963-.413 1.32 1.32 0 00-.962.413 1.32 1.32 0 00-.413.962c0 .367.138.688.413.962.275.275.596.413.962.413zm5.042 0c.367 0 .688-.138.962-.413a1.32 1.32 0 00.413-.962 1.32 1.32 0 00-.413-.962 1.32 1.32 0 00-.962-.413 1.32 1.32 0 00-.962.413 1.32 1.32 0 00-.413.962c0 .367.137.688.413.962.275.275.595.413.962.413zm5.042 0c.366 0 .687-.138.962-.413a1.32 1.32 0 00.413-.962 1.32 1.32 0 00-.413-.962 1.32 1.32 0 00-.962-.413 1.32 1.32 0 00-.963.413 1.32 1.32 0 00-.412.962c0 .367.137.688.412.962.275.275.596.413.963.413zM33 42.167c-2.536 0-4.698-.894-6.486-2.683-1.788-1.788-2.682-3.95-2.68-6.484 0-2.536.893-4.698 2.681-6.486 1.789-1.788 3.95-2.682 6.485-2.68 2.536 0 4.698.893 6.486 2.681 1.788 1.789 2.682 3.95 2.68 6.485 0 2.536-.893 4.698-2.681 6.486-1.789 1.788-3.95 2.682-6.485 2.68zM12.833 16.5h18.334v-3.667H12.833V16.5zm8.571 22H9.167c-1.009 0-1.872-.36-2.59-1.078-.72-.719-1.078-1.582-1.077-2.589V9.167c0-1.009.36-1.872 1.078-2.59.719-.72 1.582-1.078 2.589-1.077h25.666c1.009 0 1.872.36 2.59 1.078.72.719 1.078 1.582 1.077 2.589V21.45a13.131 13.131 0 00-2.682-.962A12.172 12.172 0 0033 20.166c-.336 0-.65.007-.94.022a5.92 5.92 0 00-.893.115v-.137H12.833v3.666h11.23c-.55.52-1.047 1.085-1.491 1.696a12.49 12.49 0 00-1.168 1.971h-8.57v3.667h7.47c-.06.305-.1.603-.115.894-.016.291-.024.604-.022.939 0 1.008.091 1.948.275 2.82.183.871.504 1.765.962 2.68z" fill="#13023E"/></g></svg>
